X: 29
T:Singing of the Travels
% Nottingham Music Database
S:Symondsbury
M:4/4
L:1/4
K:G
d3/2d/2 |"G"ed dB|"C"c2 d3/2c/2|"G"cB AG|"Am"GF "D7"ED|"G"G2 GA|"Em"B2 AG|\
"Am"D4-|"D7"D2 d3/2d/2|
"G"ed dB|"C"c2 d3/2c/2|"G"cB AG|"Am"d4-|"D"d2 dc|"G"Bd dd|"Am"d2 "D7"d2|"G"G4-\
|"G"G3||


